source/img/icons-sprite/header-inst.svg

<svg width="22" height="20" viewBox="0 0 22 20" fill="none" xmlns="http://www.w3.org/2000/svg">
<path d="M3.4358 2.88321C6.59041 -0.14289 10.3653 -0.332022 11.7882 0.282656C13.8487 1.15739 16.2012 0.424504 18.1158 1.77207C20.0304 3.11963 21.5445 5.57836 21.7632 8.39169C22.0003 11.2996 20.7967 14.2075 19.0639 16.0751C17.3317 17.9428 15.1251 18.9594 12.9186 19.5268C11.0767 19.9996 9.18006 20.2124 7.33821 19.7159C4.54828 18.9357 2.0498 16.3115 1.13809 12.789C0.226382 9.26641 1.15653 5.03458 3.50853 2.9305" fill="#DBDBDB"/>
<path d="M10.793 5.89363C12.1335 5.89363 12.2824 5.89363 12.8145 5.91489C13.3035 5.93616 13.5588 6.02126 13.7503 6.08511C13.9845 6.17021 14.1545 6.27658 14.3251 6.46811C14.4951 6.63832 14.6014 6.80853 14.7077 7.04258C14.7719 7.21279 14.8566 7.48937 14.8782 7.97874C14.8993 8.51063 14.8993 8.65958 14.8993 10C14.8993 11.3404 14.8993 11.4894 14.8782 12.0213C14.8566 12.5106 14.7719 12.766 14.7077 12.9575C14.623 13.1915 14.5161 13.3617 14.3251 13.5319C14.1545 13.7022 13.9845 13.8085 13.7503 13.9149C13.5803 13.9787 13.3035 14.0638 12.8145 14.0851C12.2824 14.1064 12.1335 14.1064 10.793 14.1064C9.45244 14.1064 9.3035 14.1064 8.77192 14.0851C8.28244 14.0638 8.02718 13.9787 7.8356 13.9149C7.60139 13.8298 7.43139 13.7234 7.26086 13.5319C7.09086 13.3617 6.98455 13.1915 6.87823 12.9575C6.81402 12.7872 6.72928 12.5106 6.70771 12.0213C6.68665 11.4894 6.68665 11.3404 6.68665 10C6.68665 8.65958 6.68665 8.51063 6.70771 7.97874C6.72928 7.48937 6.81402 7.23405 6.87823 7.04258C6.96297 6.80853 7.06981 6.63832 7.26086 6.46811C7.43139 6.29789 7.60139 6.19147 7.8356 6.08511C8.0056 6.02126 8.28244 5.93616 8.77192 5.91489C9.3035 5.91489 9.45244 5.89363 10.793 5.89363ZM10.793 5C9.43139 5 9.26086 5 8.72929 5.02126C8.19718 5.04258 7.8356 5.12768 7.51613 5.25532C7.19718 5.383 6.92087 5.55321 6.62297 5.82979C6.34613 6.12768 6.17613 6.40426 6.04823 6.72342C5.92086 7.04258 5.8356 7.40426 5.81402 7.93616C5.79297 8.46811 5.79297 8.63832 5.79297 10C5.79297 11.3617 5.79297 11.5319 5.81402 12.0638C5.8356 12.5958 5.92086 12.9575 6.04823 13.2766C6.17613 13.5958 6.34613 13.8936 6.62297 14.1702C6.89929 14.4468 7.17613 14.617 7.51613 14.7447C7.8356 14.8724 8.19718 14.9575 8.72929 14.9787C9.26086 15 9.43139 15 10.793 15C12.1545 15 12.3251 15 12.8567 14.9787C13.3888 14.9575 13.7503 14.8724 14.0698 14.7447C14.3888 14.617 14.6867 14.4468 14.963 14.1702C15.2398 13.8936 15.4098 13.617 15.5377 13.2766C15.6651 12.9575 15.7503 12.5958 15.7719 12.0638C15.793 11.5319 15.793 11.3617 15.793 10C15.793 8.63832 15.793 8.46811 15.7719 7.93616C15.7503 7.40426 15.6651 7.04258 15.5377 6.72342C15.4098 6.40426 15.2398 6.10637 14.963 5.82979C14.6867 5.55321 14.4098 5.383 14.0698 5.25532C13.7503 5.12768 13.3888 5.04258 12.8567 5.02126C12.3251 5 12.1545 5 10.793 5Z" fill="white"/>
<path d="M10.7933 7C9.13183 7 7.79297 8.33885 7.79297 10C7.79297 11.6611 9.13183 13 10.7933 13C12.4541 13 13.793 11.6611 13.793 10C13.793 8.33885 12.4541 7 10.7933 7ZM10.7933 11.9587C9.72735 11.9587 8.85951 11.0909 8.85951 10.0248C8.85951 8.95866 9.72735 8.09089 10.7933 8.09089C11.8592 8.09089 12.727 8.95866 12.727 10.0248C12.727 11.0909 11.8592 11.9587 10.7933 11.9587Z" fill="white"/>
<path d="M14.1465 7.35466C14.1465 7.64008 13.9142 7.85415 13.6465 7.85415C13.3608 7.85415 13.1465 7.62221 13.1465 7.35466C13.1465 7.06919 13.3784 6.85512 13.6465 6.85512C13.9142 6.83729 14.1465 7.06919 14.1465 7.35466Z" fill="white"/>
</svg>

<svg width="22" height="20" fill="none" xmlns="http://www.w3.org/2000/svg"><path d="M3.436 2.883c3.154-3.026 6.93-3.215 8.352-2.6 2.06.874 4.413.142 6.328 1.49 1.914 1.347 3.428 3.805 3.647 6.619.237 2.908-.966 5.816-2.7 7.683-1.731 1.868-3.938 2.884-6.144 3.452-1.842.473-3.739.685-5.58.189-2.79-.78-5.29-3.405-6.2-6.927-.913-3.523.018-7.754 2.37-9.858" fill="#DBDBDB"/><path d="M10.793 5.894c1.34 0 1.49 0 2.022.02.489.022.744.107.935.171.235.085.405.192.575.383.17.17.276.34.383.575.064.17.149.446.17.936.021.532.021.68.021 2.021 0 1.34 0 1.49-.02 2.021-.022.49-.107.745-.171.936a1.305 1.305 0 0 1-.383.575c-.17.17-.34.277-.575.383-.17.064-.447.149-.935.17-.533.021-.681.021-2.022.021-1.34 0-1.49 0-2.021-.02a3.033 3.033 0 0 1-.936-.171 1.307 1.307 0 0 1-.575-.383c-.17-.17-.276-.34-.383-.575-.064-.17-.149-.446-.17-.936-.021-.532-.021-.68-.021-2.021 0-1.34 0-1.49.02-2.021.022-.49.107-.745.171-.936a1.31 1.31 0 0 1 .383-.575c.17-.17.34-.277.575-.383.17-.064.446-.149.936-.17.531 0 .68-.021 2.021-.021zm0-.894c-1.362 0-1.532 0-2.064.021-.532.022-.893.107-1.213.234a2.772 2.772 0 0 0-.893.575 2.772 2.772 0 0 0-.575.893c-.127.32-.212.681-.234 1.213-.021.532-.021.702-.021 2.064s0 1.532.021 2.064c.022.532.107.893.234 1.213.128.319.298.617.575.893.276.277.553.447.893.575.32.127.681.213 1.213.234.532.021.702.021 2.064.021s1.532 0 2.064-.021.893-.107 1.213-.234a2.56 2.56 0 0 0 .893-.575 2.38 2.38 0 0 0 .575-.893c.127-.32.212-.681.234-1.213.021-.532.021-.702.021-2.064s0-1.532-.021-2.064c-.022-.532-.107-.893-.234-1.213a2.563 2.563 0 0 0-.575-.893 2.383 2.383 0 0 0-.893-.575c-.32-.127-.681-.212-1.213-.234C12.325 5 12.155 5 10.793 5z" fill="#fff"/><path d="M10.793 7c-1.661 0-3 1.339-3 3s1.339 3 3 3 3-1.339 3-3-1.339-3-3-3zm0 4.959a1.936 1.936 0 0 1-1.933-1.934c0-1.066.867-1.934 1.933-1.934s1.934.868 1.934 1.934a1.936 1.936 0 0 1-1.934 1.934zm3.353-4.604a.499.499 0 1 1-1 0c0-.286.232-.5.5-.5.268-.018.5.214.5.5z" fill="#fff"/></svg>
